app/public/dtpr-icons/wave.svg

<svg width="36" height="36" viewBox="0 0 36 36" fill="none" xmlns="http://www.w3.org/2000/svg">
<path d="M31.8564 8.8453L19 1.42265C18.3812 1.06538 17.6188 1.06538 17 1.42265L4.14359 8.8453C3.52479 9.20257 3.14359 9.86282 3.14359 10.5774V25.4226C3.14359 26.1372 3.52479 26.7974 4.14359 27.1547L17 34.5774C17.6188 34.9346 18.3812 34.9346 19 34.5774L31.8564 27.1547C32.4752 26.7974 32.8564 26.1372 32.8564 25.4226V10.5774C32.8564 9.86282 32.4752 9.20256 31.8564 8.8453Z" fill="#36B2E6" stroke="#36B2E6" stroke-width="2"/>
<path fill-rule="evenodd" clip-rule="evenodd" d="M18 20C19.1046 20 20 19.1046 20 18C20 16.8954 19.1046 16 18 16C16.8954 16 16 16.8954 16 18C16 19.1046 16.8954 20 18 20Z" fill="black"/>
<path d="M22.2426 22.2426C21.8521 22.6332 21.219 22.6332 20.8284 22.2426C20.4379 21.8521 20.4379 21.219 20.8284 20.8284C22.3905 19.2663 22.3905 16.7337 20.8284 15.1716C19.2663 13.6095 16.7337 13.6095 15.1716 15.1716C13.6095 16.7337 13.6095 19.2663 15.1716 20.8284C15.5621 21.219 15.5621 21.8521 15.1716 22.2426C14.781 22.6332 14.1479 22.6332 13.7574 22.2426C11.4142 19.8995 11.4142 16.1005 13.7574 13.7574C16.1005 11.4142 19.8995 11.4142 22.2426 13.7574C24.5858 16.1005 24.5858 19.8995 22.2426 22.2426Z" fill="black"/>
<path d="M25.0711 25.0711C24.6805 25.4616 24.0474 25.4616 23.6569 25.0711C23.2663 24.6805 23.2663 24.0474 23.6569 23.6569C26.781 20.5327 26.781 15.4673 23.6569 12.3431C20.5327 9.21895 15.4673 9.21895 12.3431 12.3431C9.21895 15.4673 9.21895 20.5327 12.3431 23.6569C12.7337 24.0474 12.7337 24.6805 12.3431 25.0711C11.9526 25.4616 11.3195 25.4616 10.9289 25.0711C7.02369 21.1658 7.02369 14.8342 10.9289 10.9289C14.8342 7.02369 21.1658 7.02369 25.0711 10.9289C28.9763 14.8342 28.9763 21.1658 25.0711 25.0711Z" fill="black"/>
</svg>

<svg xmlns="http://www.w3.org/2000/svg" width="36" height="36" fill="none"><path fill="#36B2E6" stroke="#36B2E6" stroke-width="2" d="M31.856 8.845 19 1.423a2 2 0 0 0-2 0L4.144 8.845a2 2 0 0 0-1 1.732v14.846a2 2 0 0 0 1 1.732L17 34.577a2 2 0 0 0 2 0l12.856-7.422a2 2 0 0 0 1-1.732V10.577a2 2 0 0 0-1-1.732Z"/><path fill="#000" fill-rule="evenodd" d="M18 20a2 2 0 1 0 0-4 2 2 0 0 0 0 4" clip-rule="evenodd"/><path fill="#000" d="M22.243 22.243a1 1 0 1 1-1.415-1.415 4 4 0 1 0-5.656 0 1 1 0 0 1-1.415 1.415 6 6 0 1 1 8.486 0"/><path fill="#000" d="M25.071 25.071a1 1 0 0 1-1.414-1.414 8 8 0 1 0-11.314 0 1 1 0 1 1-1.414 1.414c-3.905-3.905-3.905-10.237 0-14.142s10.237-3.905 14.142 0 3.905 10.237 0 14.142"/></svg>
